X:109
T:The Humours of Bandon
N:Set (long) Dance  Allan's  #109  pp28
N:Trad/Anon
N:CONVERTED FROM NOTEWORTHY COMPOSER  (WWW.NOTEWORTHYSOFTWARE.COM) BY
N:ABC2NWC (HTTP://MEMBERS.AOL.COM/ABACUSMUSIC/), WITH
Z: (INTO NWC) VINCE BRENNAN 2002   (WWW.SOSYOURMOM.COM)
I:abc2nwc
M:6/8
L:1/8
K:G
D|DGG GFG|ABG FGA|BGG GFG|Ade fef|
d2e c2A|BAG FGA|BAG FEF|G3G2:|
|:B|dgg gfg|(a/2b/2)ag[f2f]g[aa]|(g/2a/2)gfd2e|(f/2g/2)fd[c2c]d[ee]|
(d/2e/2)dcB2d|(c/2d/2)cBG2A| B/2c/2 BG[F2F]G[AA] |G2F D2C||
DGG GFG|ABG FGA|BGG GFG|Ade f2e|
d2e c2A|BAG FGA|BAG FEF|G3G2:|
